Newaita/actions/scalable/page-3sides.svg

<?xml version="1.0" encoding="UTF-8"?>
<svg xmlns="http://www.w3.org/2000/svg" xmlns:xlink="http://www.w3.org/1999/xlink" width="512pt" height="512pt" viewBox="0 0 512 512" version="1.1">
<g id="surface1">
<path style=" stroke:none;fill-rule:nonzero;fill:rgb(25.882354%,25.882354%,25.882354%);fill-opacity:1;" d="M 74.089844 25.167969 C 50.636719 25.167969 31.753906 44.050781 31.753906 67.507812 L 31.753906 448.542969 C 31.753906 471.996094 50.636719 490.878906 74.089844 490.878906 L 433.957031 490.878906 C 457.414062 490.878906 476.296875 471.996094 476.296875 448.542969 L 476.296875 67.507812 C 476.296875 44.050781 457.414062 25.167969 433.957031 25.167969 Z M 84.675781 56.921875 L 190.519531 56.921875 L 190.519531 459.125 L 84.675781 459.125 C 72.949219 459.125 63.507812 449.6875 63.507812 437.957031 L 63.507812 78.089844 C 63.507812 66.363281 72.949219 56.921875 84.675781 56.921875 Z M 222.269531 56.921875 L 328.113281 56.921875 L 328.113281 459.125 L 222.269531 459.125 Z M 359.867188 56.921875 L 423.375 56.921875 C 435.101562 56.921875 444.542969 66.363281 444.542969 78.089844 L 444.542969 437.957031 C 444.542969 449.6875 435.101562 459.125 423.375 459.125 L 359.867188 459.125 Z M 359.867188 56.921875 "/>
</g>
</svg>

<svg xmlns="http://www.w3.org/2000/svg" width="512pt" height="512pt" viewBox="0 0 512 512"><path d="M74.09 25.168c-23.453 0-42.336 18.883-42.336 42.34v381.035c0 23.453 18.883 42.336 42.336 42.336h359.867c23.457 0 42.34-18.883 42.34-42.336V67.508c0-23.457-18.883-42.34-42.34-42.34zm10.586 31.754H190.52v402.203H84.676a21.12 21.12 0 0 1-21.168-21.168V78.09a21.122 21.122 0 0 1 21.168-21.168zm137.594 0h105.843v402.203H222.27zm137.597 0h63.508a21.122 21.122 0 0 1 21.168 21.168v359.867a21.12 21.12 0 0 1-21.168 21.168h-63.508zm0 0" fill="#424242"/></svg>
